examples/luts/bv-prototype-warm-contrast.cube
# BV NodePack LUT proof of concept. Authored for this repository.
TITLE "BV Prototype Warm Contrast"
LUT_3D_SIZE 2
DOMAIN_MIN 0.0 0.0 0.0
DOMAIN_MAX 1.0 1.0 1.0
0.000000 0.000000 0.000000
1.000000 0.000000 0.000000
0.000000 1.000000 0.000000
1.000000 1.000000 0.000000
0.000000 0.000000 0.930000
1.000000 0.000000 0.930000
0.000000 1.000000 0.930000
1.000000 1.000000 0.930000
